X:7778
T:Unnamed, incomplete
O:england
M:3/4
L:1/4
S:Armitt MS
N:Tune takes up the whole page, and is obviously incomplete.  Notes
N:marked with a plus sign have no stems.  No key signature is given, but
N:except on the first line, no clef is given either.  We think its
N:bowing exercises.
K:C major
G,G G/2B/2|G2:||:"+"DD/2 "+"AA/2 "+"DD/2|"+"DD/2"+"AA/2"+"DD/2|G,cc/2d/2
|c>BA|((3"+"G/2,G,/4G,/4)"+" ((3A/2A/4A/4)"+" ((3D/2D/4D/4)|"+"((3G,/2G,
/4G,/4) "
+"((3A/2A/4A/4))"+"((3D/2D/4D/4)|G,cc/2d/2|c>BA|c/2B/2A/2B/2 c|D/2C/2B,/
2C/2D
/2B,/2|G,GB/2d/2|c>BA|"+"e"+"A"+"C|G/4F/4E/4D/4 E/4D/4C/4B,/4 C/4B,/4A,/
4G,/4|G,GG/2B/2|G2:||"+"G,e/2"+"Ae/2"+"[DG]e/2|"+"G,e/2"+"Ae/2"+"De/2|G,
cc/2d/2|c>BA|("+"G,e/4e/4)"+"(Ae/4e/4)"+"De/4e/4|"+"(G,e/4e/4)"+"(Ae/4e/
4)"+"(De/4e/4)|G,cc/2d/2|c>BA|c/2B/2A/2B/2c|D/2C/2B,/2C/2D/2B,/2|G,GB/2d
/2|c>BA|"+"e"+"A"+"D|G/4F/4E/4D/4 E/4D/4C/4B,/4 C/4B,/4A,/4G,/4|G,GG/2B/
2|G2:||


